X:194
T: WENN JEMAND EINE REISE THUT
N: B0679
O: Europa, Mitteleuropa, Deutschland
R: Scherz - Lied, Erzaehlung
M: 4/4
L: 1/8
K: Bb
F2 | B2B2B2B2 | d3BF2
B2 | F2D2E2C2 | D4B,2
DB, | F2F2F2GA | B2B2B2
G2 | A2FAc2C2 | F4F2z
F | BABcd2B2 | c2d2e2c2
d2e2f2d2 | c2c2c2z
d | e2d2e2f2 | g4fe
dc | B4F4 | B,4z2

